!!!!SEGMENT: Fss3009-Perche_quel_che_mi_trasse.krn
!!!id: Fss3009
!!!AGN: Frottola
!!!voices: 4
!!!COM: Sebastiano Festa
!!!OTL: Perchè quel che mi trasse
**kern	**kern	**kern	**kern
*part4	*part3	*part2	*part1
*staff4	*staff3	*staff2	*staff1
*I"Bassus	*I"Tenor	*I"Altus	*I"Superius
*I'B	*I'T	*I'A	*I'S
*clefF4	*clefGv2	*clefGv2	*clefG2
*k[]	*k[]	*k[]	*k[]
*C:	*C:	*C:	*C:
*M2/1	*M2/1	*M2/1	*M2/1
*met(C|)	*met(C|)	*met(C|)	*met(C|)
=1	=1	=1	=1
1D	2A	1F	1d
.	1d	.	.
2AA	.	2A	2e
2AA	2c	2A	2e
=2	=2	=2	=2
2D	2d	2A	2f
2D	2d	2A	2f
1C	1e	1c	1g
=3	=3	=3	=3
2C	2c	2G	2e
2C	2e	2c	2g
2C	2e	2c	2g
2C	2e	2c	2g
=4	=4	=4	=4
1D	4d	0A	4f
.	4B	.	4d
.	4c	.	4e
.	4d	.	4f
1AA	4c	.	1e
.	2d	.	.
.	4c	.	.
=5	=5	=5	=5
2D	2d	2A	2d
2C	2e	2c	2g
2D	2.d	2A	2.f
2D	.	2A	.
.	4c	.	4e
=6	=6	=6	=6
2GG	2B	2G	2d
2GG	2B	2G	2d
2AA	2A	2E	2c#X
2AA	2A	2E	2c#i
=7	=7	=7	=7
2r	2r	2r	2r
2AA	2A	2E	2c
2AA	2A	2E	2c
2AA	2A	2E	2c
=8	=8	=8	=8
2AA	2A	2E	2c
2D	2B	2F	2d
[1C	2c	1G	[1e
.	4B	.	.
.	4A	.	.
=9	=9	=9	=9
1C]	1G	1E	1e]
1FF	1A	1F	2c
.	.	.	4B
.	.	.	4A
=10	=10	=10	=10
2GG	2.G	2D	4B
.	.	.	4c
2GG	.	2D	1d
.	4F	.	.
2AA	4E	1A	.
.	4D	.	.
2AA	2E	.	2c#i
=11	=11	=11	=11
0A	1D	0F	1d
.	1D	.	1d;
=12	=12	=12	=12
1AA	2r	2r	2r
.	2E	2A	2c
2AA	2E	2A	2c
2AA	2E	2A	2c
=13	=13	=13	=13
2AA	2E	2A	2c
2AA	2F	2A	2c
[1AA	[1E	[1A	[1c
=14	=14	=14	=14
2AA]	2E]	2A]	2c]
2AA	2E	2A	2c
2D	2F	2A	2d
2AA	2E	2A	2c
=15	=15	=15	=15
0BB-X	2.D	1F	0d
.	4E	.	.
.	4F	1D	.
.	4E	.	.
.	4F	.	.
.	4G	.	.
=16	=16	=16	=16
1.AA	1.A	1.E	1c
.	.	.	2r
2D	2F	2A	2f
=17	=17	=17	=17
2C	0G	1c	2e
4BB	.	.	4d
4AA	.	.	4c
1GG	.	2d	4B
.	.	.	4c
.	.	2B	4d
.	.	.	4e
=18	=18	=18	=18
2AA	2E	1A	2c
2D	2F	.	2d
1AA	1E	1A	2d
.	.	.	2c#i
=19	=19	=19	=19
1D	1D	1F	1d
1D	1D	1F	1d
=20	=20	=20	=20
1AA	2r	2r	2r
.	2E	2A	2c
2AA	2E	2A	2c
2AA	2E	2A	2c
=21	=21	=21	=21
2AA	2E	2A	2c
2AA	2F	2A	2c
[1AA	[1E	[1A	[1c
=22	=22	=22	=22
2AA]	2E]	2A]	2c]
2AA	2E	2A	2c
2D	2F	2A	2d
2AA	2E	2A	2c
=23	=23	=23	=23
0BB-X	2.D	1F	0d
.	4E	.	.
.	4F	1D	.
.	4E	.	.
.	4F	.	.
.	4G	.	.
=24	=24	=24	=24
1.AA	1.A	1.E	1c
.	.	.	2r
2D	2F	2A	2f
=25	=25	=25	=25
2C	0G	1c	2e
4BB	.	.	4d
4AA	.	.	4c
1GG	.	2d	4B
.	.	.	4c
.	.	2B	4d
.	.	.	4e
=26	=26	=26	=26
2AA	2E	1A	2c
2D	2F	.	2d
1AA	1E	1A	2d
.	.	.	2c#i
=27	=27	=27	=27
1D	1D	1F	1d
1D	1D	1F	1d
=28	=28	=28	=28
2r	2r	2r	2r
2C	2G	2c	2e
2C	2G	2c	2e
2C	2G	2c	2e
=29	=29	=29	=29
2C	2c	2G	2e
2C	2c	2G	2e
2.GG	2.B	2.G	2g
.	.	.	4f
4GG	4A	4G	4e
=30	=30	=30	=30
2GG	4B	2G	2.d
.	2c	.	.
2GG	.	2G	.
.	4B	.	4d
1C	1c	2G	1e
.	.	2G	.
=31	=31	=31	=31
2C	2c	1G	2e
2C	2c	.	2e
2.D	2A	2F	2.f
.	2F	2A	.
4C	.	.	4e
=32	=32	=32	=32
2BB-X	4G	2D	2d
.	2A	.	.
2BB-i	.	2D	2d
.	4G	.	.
2AA	2A	2E	2c
2AA	2A	2E	2c
=33	=33	=33	=33
2r	2r	2r	2r
2AA	2E	2C	2c
2AA	2E	2C	2c
2AA	2F	2C	2c
=34	=34	=34	=34
2GG	2F	2G	2B
2GG	2E	2G	2B
1FF	1F	1C	1A
=35	=35	=35	=35
1BB-X	2F	1D	1d
.	1F	.	.
2AA	.	2F	2c
2AA	[2F	2C	2c
=36	=36	=36	=36
1GG	2F]	1G	1B
.	2E	.	.
1FF	2F	1C	1A
.	2F	.	.
=37	=37	=37	=37
1BB-X	2F	1D	2d
.	2G	.	4c
.	.	.	4B
2AA	4A	2E	2c
.	4G	.	.
2D	2F	2D	[2d
=38	=38	=38	=38
1AA	1E	1A	2d]
.	.	.	2c#i
[1Al	1D	[1Al	1d
=39	=39	=39	=39
00A]	00Dl	00A]	00dl
==	==	==	==
*-	*-	*-	*-
!!!system-decoration: [*]
!!!RDF**kern: i = editorial accidental
!!!RDF**kern: l = terminal long
!!!ENC: Benjamin Ory
!!!END: 2024/10/7
!!!EED: Benjamin Ory
!!!EEV: 2024/10/07
!!!YEC: Copyright 2024 Benjamin Ory, All Rights Reserved
!!!ONB: Translated from MusicXML on 2024/10/07